X:272
T:Setting of the Sun (Fone) no words
F:http://www.vwml.org/record/SBG/3/
Z:Original Sibelius transcriptions by M. & S. Graebe
L:1/4
M:3/4
I:linebreak $
K:D
V:1 treble nm="P1"
V:2 treble 
V:1
 x2 A | d c d |"_or" B A [DF] | E D3/2 D/ | D2 A | d c d | e d c | B A (3B/A/B/ | A2 (3A/B/c/ |$ %9
 d e f | e d A | B A G | d2 D | A c B | A G C | F/E/ D (3E/D/E/ | D2 A/ A/ |"^chorus" d c d |$ %18
 f2 (3e/d/e/ | d c d | e2 A | B A G | d c B | B A F | E2 A | G F E/D/ |$ A2 A | B3/2 c/ d/e/ | %28
 f2 A | A c B | A G C | E D (3E/D/E/ | D2 x | %33
V:2
 x3 | x3 | A B x | x3 | x3 | x3 | x3 | x3 | x3 |$ x3 | x3 | x3 | x3 | x3 | x3 | x3 | x3 | x3 |$ %18
 x3 | x3 | x3 | x3 | x3 | x3 | x2 D | F E C/E/ |$ F G A | A A B/c/ | d2 x | x3 | x3 | x3 | x3 | %33

